src/pos-icons/sim-off.svg

<svg height="24" viewBox="0 0 24 24" width="24" xmlns="http://www.w3.org/2000/svg"><path d="m19 5a2 2 0 0 0 -2-2h-7l-2.34 2.34 11.34 11.34zm-15.35-1.12-1.27 1.27 2.62 2.62v11.23a2 2 0 0 0 2 2h10c.36 0 .68-.1.97-.26l1.88 1.88 1.27-1.27z"/></svg>

<?xml version="1.0" encoding="UTF-8"?><!DOCTYPE svg PUBLIC "-//W3C//DTD SVG 1.1//EN" "http://www.w3.org/Graphics/SVG/1.1/DTD/svg11.dtd"><svg xmlns="http://www.w3.org/2000/svg" xmlns:xlink="http://www.w3.org/1999/xlink" version="1.1" id="mdi-sim-off" width="24" height="24" viewBox="0 0 24 24"><path d="M19,5A2,2 0 0,0 17,3H10L7.66,5.34L19,16.68V5M3.65,3.88L2.38,5.15L5,7.77V19A2,2 0 0,0 7,21H17C17.36,21 17.68,20.9 17.97,20.74L19.85,22.62L21.12,21.35L3.65,3.88Z" /></svg>
